X:1
T:Penang, 87.87 D
T:Penang, 87.87 D
T:Chestser G. Allen, 1875
T:Public Domain Courtesy of the Cyber Hymnal™
C:Chestser G. Allen, 1875
Z:Public Domain
Z:Courtesy of the Cyber Hymnal™
%%score ( 1 2 ) ( 3 4 )
L:1/8
Q:1/4=105
M:4/4
K:G
V:1 treble 
V:2 treble 
V:3 bass 
V:4 bass 
V:1
 [B,D]2 ([CE][DF]) [DG]2 [B,G]2 | [DA]2 ([DB][Fc]) [Gd]2 [GB]2 | %2
 [DG]2 [DF]2 ([CE][DF]) ([DG][FA]) | [GB]2 [GB]2 [FB]4 | [GB]2 [DG]2 [FA]2 ([GB][Fc]) | %5
 [Gd]2 [Ge]2 [Gd]2 [GB]2 | E2 [DF]2 [DG]2 [GB]2 | [GA]2 [FA]2 G4 | [FA]2 [GA]2 [FA]2 [Fd]2 | %9
 ([E^c][GB]) ([FA][EG]) ([DF][EG]) [FA]2 | [GB]2 [GB]2 [DA]2 [Fd]2 | [Ge]2 ([Fd][E^c]) [Fd]4 | %12
 D2 (EF) [B,G]2 [B,G]2 | [DA]2 ([DB][Fc]) [Gd]2 [GB]2 | E2 [DF]2 [DG]2 [GB]2 | [GA]2 [FA]2 G4 |] %16
V:2
 x8 | x8 | x8 | x8 | x8 | x8 | E2 x6 | x4 G4 | x8 | x8 | x8 | x8 | D2 C2 x4 | x8 | E2 x6 | x4 G4 |] %16
V:3
 [G,,G,]2 (G,A,) [B,,G,]2 [G,,G,]2 | [D,F,]2 G,[A,D] [B,D]2 [G,D]2 | %2
 [G,,G,]2 [B,,G,]2 ([C,G,][A,,A,]) ([G,,B,][D,D]) | [G,D]2 [E,E]2 [B,,^D]4 | %4
 [G,,D]2 [B,,G,]2 [D,D]2 D2 | [B,D]2 C2 [B,D]2 [G,D]2 | [C,C]2 [A,,C]2 [G,,B,]2 [G,,D]2 | %7
 [C,E]2 (DC) [G,,B,]4 | [D,D]2 [E,^C]2 [F,D]2 [D,A,]2 | A,2 [A,,A,]2 [D,A,]2 [D,A,]2 | %10
 G,2 G,2 [F,A,]2 [D,A,]2 | [G,B,]2 A,2 (A,2 C2) | [G,B,]2 G,2 G,2 [G,,G,]2 | %13
 [D,F,]2 G,[A,D] [B,D]2 [G,D]2 | [C,C]2 [A,,C]2 [G,,B,]2 [G,,D]2 | [C,E]2 (DC) [G,,B,]4 |] %16
V:4
 x2 C,2 x4 | x2 G, x5 | x8 | x8 | x6 (G,A,) | x2 C2 x4 | x8 | x2 D,2 x4 | x8 | A,2 x6 | %10
 G,2 G,2 x4 | x2 A,2 D,4 | x2 G,2 G,2 x2 | x2 G, x5 | x8 | x2 D,2 x4 |] %16

